packages/sights/assets/overlays/vedHBC2n.svg

<svg width="500" height="375" viewBox="0 0 500 375" fill="none" xmlns="http://www.w3.org/2000/svg">
<path d="M6 131.85C6 131.85 143.5 49.4999 390.5 87.4999" stroke="white" stroke-miterlimit="10"/>
<path d="M377.5 92.5L381.5 90.5H387.5L398.5 80.5L402.5 79.5L398.5 90.5L401.5 91.5L403.5 95.5C397.848 96.0673 392.152 96.0673 386.5 95.5L377.5 92.5Z" stroke="white" stroke-miterlimit="10"/>
<path d="M399.17 88.6602C399.17 88.6602 470.51 106.46 491.01 117.48" stroke="white" stroke-miterlimit="10"/>
<path d="M39.2501 116.32C39.2501 116.32 -37.4999 187.5 80.5001 343.5C80.5001 343.5 53.5801 365.83 50.5001 369.67" stroke="white" stroke-miterlimit="10"/>
<path d="M80.5 343.5C80.5 343.5 240 190.94 492.75 151.72" stroke="white" stroke-miterlimit="10"/>
<path d="M111.08 368.25C111.08 368.25 296 204.55 492.75 176" stroke="white" stroke-miterlimit="10"/>
<path d="M348.71 218.7C348.71 218.7 358.09 351.83 346.8 369.7" stroke="white" stroke-miterlimit="10"/>
<path d="M377.84 206.85C377.84 206.85 406.32 321.85 395.41 369.67" stroke="white" stroke-miterlimit="10"/>
<path d="M399.08 369.67C399.08 369.67 488 301.94 492.75 295.72" stroke="white" stroke-miterlimit="10"/>
<path d="M418.64 368.25C418.64 368.25 488 313.34 492.75 306.42" stroke="white" stroke-miterlimit="10"/>
</svg>

<svg width="500" height="375" fill="none" xmlns="http://www.w3.org/2000/svg"><path d="M6 131.85S143.5 49.5 390.5 87.5" stroke="#fff" stroke-miterlimit="10"/><path d="m377.5 92.5 4-2h6l11-10 4-1-4 11 3 1 2 4a85.118 85.118 0 0 1-17 0l-9-3Z" stroke="#fff" stroke-miterlimit="10"/><path d="M399.17 88.66s71.34 17.8 91.84 28.82M39.25 116.32S-37.5 187.5 80.5 343.5c0 0-26.92 22.33-30 26.17M80.5 343.5S240 190.94 492.75 151.72" stroke="#fff" stroke-miterlimit="10"/><path d="M111.08 368.25S296 204.55 492.75 176" stroke="#fff" stroke-miterlimit="10"/><path d="M348.71 218.7s9.38 133.13-1.91 151M377.84 206.85s28.48 115 17.57 162.82M399.08 369.67s88.92-67.73 93.67-73.95M418.64 368.25s69.36-54.91 74.11-61.83" stroke="#fff" stroke-miterlimit="10"/></svg>
